!!!!SEGMENT: pl-wtm--r-859-m_moniuszko-stanislaw--ach-spiew-z-opery-sielanka.krn
!!!cenid: 18xx:2861
!!!COM: Moniuszko, Stanisław
!!!COM-rismid: pe30008351
!!!CDT: 1819/05/05-1872/06/04
!!!CNT: Polish
!!!OTL: Ach - Śpiew z opery Sielanka
!!!PDT: 1892
!!!AGN:
!!!SMS-siglum: PL-Wtm
!!!SMS-shelfmark: R 859/M
!!!SMS-shelfwork: W
!!!SMS-variant:
!!!SMS-altvar:
!!!NIFC-rismid: 1001100159
!!!URL-scan: http://repozytorium.nifc.pl/skany/pl-wtm-nut--r859m
!!!ONB-nifc:
!!!OMD: Non troppo presto.
!!!AIN: 1 piano 1 vox
!!!key:
**kern	**kern	**dynam	**kern	**text	**text	**text	**text
*part2	*part2	*part2	*part1	*part1	*part1	*part1	*part1
*staff3	*staff2	*	*staff1	*staff1	*staff1	*staff1	*staff1
*Ipiano	*Ipiano	*	*Ivox	*	*	*	*
*I"[Piano]	*I"[Piano]	*	*I"[Voce]	*	*	*	*
*clefF4	*clefG2	*	*clefG2	*	*	*	*
*k[f#]	*k[f#]	*	*k[f#]	*	*	*	*
*e:	*e:	*	*e:	*	*	*	*
*M3/4	*M3/4	*	*M3/4	*	*	*	*
*>[A,B,B,B]	*>[A,B,B,B]	*	*>[A,B,B,B]	*	*	*	*
=1	=1	=1	=1	=1	=1	=1	=1
*>A	*>A	*	*>A	*	*	*	*
!	!LO:TX:t=P:problem=znak przykluczowy f# na 1 polu	!	!LO:TX:t=P:problem=znak przykluczowy f# na 1 polu	!	!	!	!
4E\ 4G 4B	2.r	.	2.r	.	.	.	.
4E\ 4G 4B	.	.	.	.	.	.	.
4E\ 4G 4B	.	.	.	.	.	.	.
=2	=2	=2	=2	=2	=2	=2	=2
4E\ 4G 4B	2.r	.	2.r	.	.	.	.
4E\ 4G 4B	.	.	.	.	.	.	.
4E\ 4G 4B	.	.	.	.	.	.	.
=3!|:	=3!|:	=3!|:	=3!|:	=3!|:	=3!|:	=3!|:	=3!|:
*>B	*>B	*	*>B	*	*	*	*
.	(8qff#/	.	.	.	.	.	.
4E\ 4F# 4A 4c	8.ee\L)	.	2.r	.	.	.	.
.	16dd#X\Jk	.	.	.	.	.	.
4E\ 4F# 4A 4c	4.ee\	.	.	.	.	.	.
4E\ 4F# 4A 4c	.	.	.	.	.	.	.
.	8cc\	.	.	.	.	.	.
=4	=4	=4	=4	=4	=4	=4	=4
.	8qcc/	.	.	.	.	.	.
4E\ 4G 4B	8.b\L	.	2.r	.	.	.	.
.	16a#X\Jk	.	.	.	.	.	.
4E\ 4G 4B	4b\	.	.	.	.	.	.
4E\ 4G 4B	8dd\L	.	.	.	.	.	.
.	8cc\J	.	.	.	.	.	.
=5	=5	=5	=5	=5	=5	=5	=5
*^	*	*	*	*	*	*	*
4r	2.BB\	8b/L	.	2.r	.	.	.	.
.	.	8a/J	.	.	.	.	.	.
4D#X/ 4A 4B	.	4f#/	.	.	.	.	.	.
4D#/ 4A 4B	.	4f#/	.	.	.	.	.	.
*v	*v	*	*	*	*	*	*	*
=6	=6	=6	=6	=6	=6	=6	=6
4E\ 4G 4B	2g/	.	2.r	.	.	.	.
4E\ 4G 4B	.	.	.	.	.	.	.
4E\ 4G 4B	4e/	.	.	.	.	.	.
!!LO:LB:g=original
=7	=7	=7	=7	=7	=7	=7	=7
.	(8qqff#/	.	.	.	.	.	.
4C\ 4G 4c	8.ee\L)	.	2.r	.	.	.	.
.	16dd#X\Jk	.	.	.	.	.	.
4C\ 4G 4c	4.ee\	.	.	.	.	.	.
4C\ 4G 4c	.	.	.	.	.	.	.
.	8cc\	.	.	.	.	.	.
=8	=8	=8	=8	=8	=8	=8	=8
.	(8qcc/	.	.	.	.	.	.
4GG/	8.b\L)	.	2.r	.	.	.	.
.	16a\Jk	.	.	.	.	.	.
4D\ 4G 4B	4b\	.	.	.	.	.	.
.	(8qb/	.	.	.	.	.	.
4AA\ 4C 4F# 4A	8.dd\L)	.	.	.	.	.	.
.	16cc\Jk	.	.	.	.	.	.
=9	=9	=9	=9	=9	=9	=9	=9
4BB\	8.a/L	.	2.r	.	.	.	.
.	16f#/Jk	.	.	.	.	.	.
4F#\ 4A	4d#X/	.	.	.	.	.	.
4BB\ 4F# 4A	4d#/ 4b	.	.	.	.	.	.
=10	=10	=10	=10	=10	=10	=10	=10
4E\ 4G	4e/	.	2.r	.	.	.	.
4E\ 4G	4B/ 4e	.	.	.	.	.	.
4E\ 4G	4B/ 4e	.	.	.	.	.	.
=11	=11	=11	=11	=11	=11	=11	=11
4E\ 4G	4B/ 4e	.	8.e/	1.Mo-	.	2.Da-	3.Dzi-
.	.	.	16f#/	-ja	.	-wniej	-siaj
4E\ 4G	4B/ 4e	.	4g/	lu-	.	ża-	roz-
4E\ 4G	4B/ 4e	.	4g/	-ba!	.	-dna	-pacz
!!LO:LB:g=original
=12	=12	=12	=12	=12	=12	=12	=12
.	.	.	(8qa/	.	.	.	.
4C#X\ 4G	4A#X/ 4e 4g	.	8.g/)	mo-	.	dziew-	byt
.	.	.	16f#/	-ja	.	-ka	mój
4C#\ 4G	4A#/ 4e 4g	.	4.g/	mi-	.	mło-	kru-
4C#\ 4G	4A#/ 4e 4g	.	.	.	.	.	.
.	.	.	8f#/	-ła!	.	-da,	-szy,
=13	=13	=13	=13	=13	=13	=13	=13
4E\ 4G	4B/ 4e	.	8.e/	O-	.	Cho-	Go-
.	.	.	16f#/	-czu	.	-ciaż	-niąc
4E\ 4G	4B/ 4e	.	4g/	twych	.	kraś-	z_ser-
4E\ 4G	4B/ 4e	.	4g/	cza-	.	-na	-ca
=14	=14	=14	=14	=14	=14	=14	=14
.	.	.	(8qa/	.	.	.	.
4C#X\ 4G	4A#X/ 4e 4g	.	8.g/)	-ro-	.	jak	go-
.	.	.	16f#/	-wna	.	ja-	-niąc
4C#\ 4G	4A#/ 4e 4g	.	4.g/	si-	.	-go-	z_du-
4C#\ 4G	4A#/ 4e 4g	.	.	.	.	.	.
.	.	.	8f#/	-ła	.	-da,	-szy
=15	=15	=15	=15	=15	=15	=15	=15
4E\ 4G	4B/ 4e	.	8.e/	Wzię-	.	Nie	Ży-
.	.	.	16f#/	-ła	.	zwa-	-cia
4E\ 4G	4B/ 4e	.	4g/	ser-	.	-bi-	me-
4E\ 4A	4c/ 4e	.	4a/	-ce	.	-ła	-go
=16	=16	=16	=16	=16	=16	=16	=16
4E\ 4G	4B/ 4e	.	8b/	me,	.	mię,	zdrój,
.	.	.	8r	.	.	.	.
2C#X\	2A#X/ 2e 2g	.	(2ee\	Ach!	.	Ach!	Ach!
.	.	.	8qb/)	.	.	.	.
!!LO:LB:g=original
=17	=17	=17	=17	=17	=17	=17	=17
2BB\	4r	.	8b/	wzię-	.	nie	ży-
.	.	.	8g/	-ła	.	zwa-	-cia
.	4B/ 4d#X 4f#	.	4f#/	ser-	.	-bi-	me-
4BB\ 4F#	4d#/ 4b	.	4b/	-ce	.	-ła	-go
=18	=18	=18	=18	=18	=18	=18	=18
4E\ 4G	4B/ 4e	.	2g/	me.	.	mię.	zdrój.
4E\ 4G	4B/ 4e	.	.	.	.	.	.
4E\ 4G	4B/ 4e	.	4r	.	.	.	.
=19	=19	=19	=19	=19	=19	=19	=19
4C#X\ 4G	4A#X/ 4e	.	8.e/	Mnie	.	Ty	Bła-
.	.	.	16f#/	ska-	.	zmie-	-gam
4C#\ 4G	4A#/ 4e	.	4g/	-za-	.	-ni-	ul-
4C#\ 4G	4A#/ 4e	.	4g/	-łaś,	.	-łaś	-żyj
=20	=20	=20	=20	=20	=20	=20	=20
.	.	.	(8qa/	.	.	.	.
4E\ 4G	4B/ 4e	.	8.g/)	na	.	me	mym
.	.	.	16f#/	ka-	.	ist-	cier-
4E\ 4G	4B/ 4e	.	4.g/	-tu-	.	-nie-	-pie-
4E\ 4G	4B/ 4e	.	.	.	.	.	.
.	.	.	8f#/	-szę,	.	-nie,	-niom,
=21	=21	=21	=21	=21	=21	=21	=21
4C#X\ 4G	4A#X/ 4e	.	8.e/	Bio-	.	Nie-	Od-
.	.	.	16f#/	-rąc	.	-zna-	-po-
4C#\ 4G	4A#/ 4e	.	4g/	ser-	.	-ne	-wiedz
4C#\ 4G	4A#/ 4e	.	4g/	-ce,	.	dó-	ser-
=22	=22	=22	=22	=22	=22	=22	=22
.	.	.	(8qa/	.	.	.	.
4E\ 4G	4B/ 4e	.	8.g/)	bio-	.	-tąd	-ca
.	.	.	16f#/	-rąc	.	cier-	ży-
4E\ 4G	4B/ 4e	.	4.g/	du-	.	-pie-	-cze-
4E\ 4G	4B/ 4e	.	.	.	.	.	.
.	.	.	8f#/	-szę,	.	-nie	-niom
!!LO:PB:g=original
=23	=23	=23	=23	=23	=23	=23	=23
4C\	4A/ 4e	.	8e/	Daj-	[[czuję	Czu-	Ty
.	.	.	8f#/	-że	wi-	-ję	a-
4C\	4A/ 4e 4g	.	4g/	w_za-	-dząc	wi-	-nie-
4C\	4A/ 4e 4g	.	4a/	-mian	cię,	-dząc	-le
=24	=24	=24	=24	=24	=24	=24	=24
*	*^	*	*	*	*	*	*
4D\	4B/ 4g	2ryy	.	8b/	twe,	cię,]]	cię,	mój,
.	.	.	.	8r	.	.	.	.
2DD/ 2D	2g/	.	.	(2gg\	Ach!	.	Ach!	Ach!
.	.	(>8B\L 8d	>	.	.	.	.	.
.	.	8A#\J 8c#)	]	.	.	.	.	.
.	.	.	.	8qdd/)	.	.	.	.
*	*v	*v	*	*	*	*	*	*
=25	=25	=25	=25	=25	=25	=25	=25
2D\	4r	.	8dd\	Daj-	.	Czu-	Ty
.	.	.	8cc\	-że	.	-ję	a-
.	4A/ 4c 4f#	.	4a/	w_za-	.	wi-	-nie-
4D\	4A/ 4c 4f#	.	4a/	-mian	.	-dząc	-le
=26	=26	=26	=26	=26	=26	=26	=26
4GG/ 4G	4B/ 4g	.	4b/	twe,	.	cię,	mój,
.	.	.	8qb/	.	.	.	.
2AA\ 2A	2c^/ 2e 2f#	.	(4.dd\	ach!	.	ach!	ach!
.	.	.	8cc\)	.	.	.	.
=27	=27	=27	=27	=27	=27	=27	=27
2BB\	4r	.	8b/	Daj-	.	czu-	ty
.	.	.	8a/	-że	.	-ję	a-
.	4A/ 4d#X 4f#	.	4f#/	w za-	.	wi-	-nie-
4BB\ 4A	4d#/ 4f# 4b	.	4b/	-mian	.	-dząc	-le
=28	=28	=28	=28	=28	=28	=28	=28
.	.	.	8qb/	.	.	.	.
4E\ 4G	4e/	.	2e/	twe.	.	cię.	mój.
4E\ 4G 4B	4r	.	.	.	.	.	.
!LO:TX:b:t=Przypomniałem i spisałem\n1/13 sierpnia 1892 r.\nw Nieświeżu\nMalicki\nTowarzystwu Warszawskiemu imienia Moniuszki\nofiaruję\nMalicki	!	!	!	!	!	!	!
4E\ 4G 4B	4r	.	4r	.	.	.	.
=:|!	=:|!	=:|!	=:|!	=:|!	=:|!	=:|!	=:|!
*-	*-	*-	*-	*-	*-	*-	*-
!!!system-decoration: s1{(s2,s3)}
!!!RDF**kern: < = below
!!!RDF**kern: > = above
!!!ENC: Tomasz Grochalski
!!!END: 2021-08-08
!!!ENC: Marta Chmielewska
!!!END: 2021-09-08
